X:173
T:Willy will you e'er return
T:Uilleachan, an tig thu chaoidh
R:Slow Strathspey
S:Simon Fraser Collection
N:No.210
O:Scottish
M:C
L:1/8
Q:1/4=140
K:F
f|:c>A F<d F<F c>A|c<A F>G A<c d2|c>A F<d c<F c>B|A>GF>G A<c d2:|
c<A f>d c>A B<G|A<f e<d ^c>A d2|c<A f>d c<A B<G|A>GF>G A<c d2|
c<A f>d c>A B<G|A>GF>G A<c d2|c<A f>d c>A B<G|A<fe<a ^c>A d2|
c<A a>g f>dc>B|A>GF>G Ac d2||

